public/logos/niq.svg

<?xml version="1.0" encoding="utf-8"?>
<svg xmlns="http://www.w3.org/2000/svg" fill="none" height="100%" overflow="visible" preserveAspectRatio="none" style="display: block;" viewBox="0 0 44.2629 19" width="100%">
<g id="Group 126">
<path d="M4.08091 16.7119V7.77275C5.27928 9.39216 8.64764 13.0196 10.8824 15.643C13.2144 17.9751 14.8661 16.3232 14.9633 14.8657V0.2911H10.8824V9.23021C9.48973 7.74036 6.17966 4.11938 4.08091 1.55424C2.23478 -0.972032 0.194329 0.67976 0 1.94289V16.7119H4.08091Z" fill="var(--fill-0, #9FA3AE)" id="Vector"/>
<path d="M22.9302 0.19418H18.655V16.7122H22.9302V0.19418Z" fill="var(--fill-0, #9FA3AE)" id="Vector_2"/>
<path clip-rule="evenodd" d="M38.2282 15.9883C36.983 16.6965 35.5425 17.1009 34.0076 17.1009C29.2853 17.1009 25.4571 13.2728 25.4571 8.55046C25.4571 3.82817 29.2853 0 34.0076 0C38.7299 0 42.5581 3.82817 42.5581 8.55046C42.5581 10.1868 42.0985 11.7157 41.3013 13.0153L44.2629 15.977L41.2399 19L38.2282 15.9883ZM38.4771 8.55037C38.4771 11.0189 36.4761 13.02 34.0076 13.02C31.539 13.02 29.538 11.0189 29.538 8.55037C29.538 6.0819 31.539 4.08082 34.0076 4.08082C36.4761 4.08082 38.4771 6.0819 38.4771 8.55037Z" fill="var(--fill-0, #9FA3AE)" fill-rule="evenodd" id="Vector_3"/>
</g>
</svg>

<svg xmlns="http://www.w3.org/2000/svg" fill="none" overflow="visible" preserveAspectRatio="none" style="display:block" viewBox="0 0 44.263 19"><g fill="var(--fill-0, #9fa3ae)"><path d="M4.08 16.712v-8.94c1.2 1.62 4.568 5.248 6.802 7.871 2.332 2.332 3.984.68 4.081-.777V.29h-4.08v8.94C9.49 7.74 6.18 4.118 4.08 1.553 2.235-.972.194.68 0 1.943v14.769zM22.93.194h-4.275v16.518h4.275z"/><path fill-rule="evenodd" d="M38.228 15.988a8.55 8.55 0 1 1 3.073-2.973l2.962 2.962L41.24 19zm.25-7.438a4.47 4.47 0 1 1-8.94 0 4.47 4.47 0 0 1 8.94 0" clip-rule="evenodd"/></g></svg>
